src/assets/images/svg/openbuild.svg

<svg width="169" height="36" viewBox="0 0 169 36" fill="none" xmlns="http://www.w3.org/2000/svg">
<path d="M129.103 4.80024C129.103 4.14571 129.321 3.49118 129.866 2.94574C130.303 2.4003 130.957 2.18213 131.721 2.18213C132.484 2.18213 133.139 2.4003 133.575 2.94574C134.121 3.49118 134.339 4.03662 134.339 4.80024C134.339 5.56385 134.121 6.21838 133.575 6.65473C133.03 7.20017 132.484 7.41834 131.721 7.41834C130.957 7.41834 130.412 7.20017 129.866 6.65473C129.321 6.10929 129.103 5.45476 129.103 4.80024ZM129.648 11.0182L133.684 10.2546V26.3996H129.648V11.0182Z" fill="#1A1A1A"/>
<path d="M125.502 9.81934H121.466V18.9827C121.466 20.8372 119.939 22.4735 117.975 22.4735C116.121 22.4735 114.484 20.9463 114.484 18.9827V9.81934H110.448V18.9827C110.448 23.128 113.83 26.5098 117.975 26.5098C122.121 26.5098 125.502 23.128 125.502 18.9827V9.81934Z" fill="#1A1A1A"/>
<path d="M70.8281 17.2373V26.4007H74.8644V17.2373C74.8644 15.3828 76.3916 13.8556 78.2461 13.8556C80.1006 13.8556 81.7369 15.3828 81.7369 17.3464V26.5098H85.7731V17.3464C85.7731 13.2011 82.3914 9.81934 78.2461 9.81934C74.1008 9.81934 70.8281 13.092 70.8281 17.2373Z" fill="#1A1A1A"/>
<path d="M144.702 22.6903C144.484 22.6903 144.266 22.6903 144.047 22.6903C143.175 22.6903 142.52 22.4721 142.302 22.0357C142.084 21.5994 141.866 20.9449 141.866 20.2903V0L137.938 0.763614V20.2903C137.938 21.0539 138.048 21.8176 138.157 22.4721C138.266 23.1266 138.593 23.7811 138.92 24.3266C139.357 24.872 139.793 25.3084 140.557 25.5265C141.211 25.8538 142.084 25.9629 143.175 25.9629C143.611 25.9629 144.047 25.9629 144.593 25.8538V22.6903H144.702Z" fill="#1A1A1A"/>
<path d="M168.156 22.6903C167.283 22.6903 166.629 22.4721 166.41 22.0357C166.192 21.5994 165.974 20.9449 165.974 20.2903V0L162.047 0.763615V10.2543C161.61 10.0361 161.174 9.8179 160.629 9.59973C159.538 9.16337 158.447 8.9452 157.138 8.9452C155.938 8.9452 154.738 9.16337 153.647 9.59973C152.556 10.0361 151.683 10.5815 150.811 11.3451C150.047 12.1087 149.393 12.9814 148.956 14.0723C148.52 15.1632 148.302 16.2541 148.302 17.5631C148.302 18.8722 148.52 19.9631 148.956 21.0539C149.393 22.1448 150.047 23.0175 150.811 23.7811C151.574 24.5448 152.556 25.0902 153.647 25.5265C154.738 25.9629 155.829 26.1811 157.138 26.1811C158.338 26.1811 159.538 25.9629 160.629 25.5265C160.956 25.4175 161.283 25.1993 161.61 25.0902L161.501 24.9811C161.065 24.4357 160.847 23.8902 160.738 23.1266C160.629 22.5812 160.52 22.0357 160.52 21.3812C160.192 21.7085 159.756 22.0357 159.32 22.2539C158.774 22.5812 158.011 22.6903 157.247 22.6903C156.483 22.6903 155.72 22.5812 155.174 22.2539C154.629 21.9266 154.083 21.4903 153.756 21.0539C153.32 20.5085 153.102 19.9631 152.883 19.4176C152.665 18.7631 152.556 18.1086 152.556 17.5631C152.556 16.9086 152.665 16.3632 152.883 15.7086C153.102 15.0541 153.32 14.5087 153.756 14.0723C154.192 13.5269 154.629 13.1996 155.174 12.8724C155.72 12.5451 156.483 12.436 157.247 12.436C158.011 12.436 158.774 12.5451 159.32 12.8724C159.865 13.1996 160.41 13.5269 160.738 14.0723C161.065 14.6178 161.392 15.1632 161.61 15.7086C161.72 15.9268 161.72 16.3632 161.72 16.6904V20.2903C161.72 21.0539 161.829 21.8176 161.938 22.4721C162.047 23.1266 162.374 23.7811 162.701 24.3266C163.138 24.872 163.574 25.3084 164.338 25.5265C164.992 25.8538 165.865 25.9629 166.956 25.9629C167.283 25.9629 167.828 25.9629 168.265 25.8538V22.6903C168.374 22.6903 168.265 22.6903 168.156 22.6903Z" fill="#1A1A1A"/>
<path d="M27.2744 13.3097C28.1471 13.3097 28.8016 13.5278 29.0198 13.9642C29.238 14.4005 29.4561 15.0551 29.4561 15.7096V35.9999L33.3833 35.2363V25.7457C33.8197 25.9638 34.256 26.182 34.8015 26.4002C35.8923 26.8365 36.9832 27.0547 38.2923 27.0547C39.4922 27.0547 40.6922 26.8365 41.7831 26.4002C42.8739 25.9638 43.7467 25.4184 44.6194 24.6548C45.383 23.8912 46.0375 23.0185 46.4738 21.9276C46.9102 20.8367 47.1284 19.7458 47.1284 18.4368C47.1284 17.1277 46.9102 16.0369 46.4738 14.946C46.0375 13.8551 45.383 12.9824 44.6194 12.2188C43.8557 11.4552 42.8739 10.9097 41.7831 10.4734C40.6922 10.037 39.6013 9.81885 38.2923 9.81885C37.0923 9.81885 35.8923 10.037 34.8015 10.4734C34.4742 10.5825 34.1469 10.8006 33.8197 10.9097L33.9287 11.0188C34.3651 11.5643 34.5833 12.1097 34.6924 12.8733C34.8014 13.4187 34.9105 13.9642 34.9105 14.6187C35.2378 14.2914 35.6742 13.9642 36.1105 13.746C36.6559 13.4187 37.4196 13.3097 38.1832 13.3097C38.9468 13.3097 39.7104 13.4187 40.2558 13.746C40.8013 14.0733 41.3467 14.5096 41.674 14.946C42.1103 15.4914 42.3285 16.0369 42.5467 16.5823C42.7649 17.2368 42.8739 17.8913 42.8739 18.4368C42.8739 19.0913 42.7649 19.6367 42.5467 20.2913C42.3285 20.9458 42.1103 21.4912 41.674 21.9276C41.2376 22.473 40.8013 22.8003 40.2558 23.1276C39.7104 23.4548 38.9468 23.5639 38.1832 23.5639C37.4196 23.5639 36.6559 23.4548 36.1105 23.1276C35.5651 22.8003 35.0196 22.473 34.6924 21.9276C34.3651 21.3822 34.0378 20.8367 33.8197 20.2913C33.7106 20.0731 33.7106 19.6367 33.7106 19.3095V15.7096C33.7106 14.946 33.6015 14.1824 33.4924 13.5278C33.3833 12.8733 33.056 12.2188 32.7288 11.6733C32.2924 11.1279 31.8561 10.6916 31.0925 10.4734C30.4379 10.1461 29.5652 10.037 28.4744 10.037C28.1471 10.037 27.6017 10.037 27.1653 10.1461V13.3097C27.0562 13.3097 27.1653 13.3097 27.2744 13.3097Z" fill="#1A1A1A"/>
<path d="M66.6553 14.7283C66.219 13.6374 65.6735 12.7647 65.019 12.0011C64.3645 11.2375 63.4918 10.692 62.51 10.3648C61.5282 10.0375 60.5464 9.81934 59.3464 9.81934C58.1465 9.81934 57.0556 10.0375 55.9647 10.4739C54.8739 10.9102 54.0011 11.4557 53.2375 12.2193C52.4739 12.9829 51.8194 13.8556 51.383 14.9465C50.9467 16.0373 50.7285 17.2373 50.7285 18.5464C50.7285 19.8554 50.9467 21.0554 51.383 22.1463C51.8194 23.2371 52.4739 24.1098 53.2375 24.7644C54.0011 25.528 54.8739 26.0734 55.9647 26.4007C57.0556 26.7279 58.1465 26.9461 59.4555 26.9461C61.5282 26.9461 63.71 26.4007 65.6735 24.6553L63.4918 22.0372C63.1645 22.3644 62.1827 23.019 61.9646 23.128C61.31 23.4553 60.4373 23.6735 59.4555 23.6735C58.9101 23.6735 58.2556 23.5644 57.8192 23.3462C57.2738 23.128 56.8374 22.9099 56.4011 22.4735C55.9647 22.1463 55.6375 21.7099 55.4193 21.2736C55.2011 20.8372 54.9829 20.2918 54.9829 19.6372C54.8738 18.11 54.9829 16.6919 54.9829 16.6919C55.092 15.4919 55.5284 14.6192 56.4011 13.8556C57.2738 13.092 58.2556 12.7647 59.4555 12.7647C60.1101 12.7647 60.6555 12.8738 61.2009 13.092C61.6373 13.3101 62.0736 13.6374 62.4009 13.9647C62.7282 14.2919 62.9463 14.7283 63.0554 15.1646C63.1645 15.601 63.2736 16.1464 63.2736 16.6919H56.292V19.6372H67.2008C67.2008 19.4191 67.2008 19.31 67.2008 19.0918C67.2008 18.8736 67.2008 18.7645 67.2008 18.5464C67.3099 17.1282 67.0917 15.8192 66.6553 14.7283Z" fill="#1A1A1A"/>
<path d="M104.72 14.7233C103.263 13.043 98.6707 13.155 98.6707 13.155H97.1024H95.4221V16.9637H99.3428C100.351 16.9637 102.479 16.9637 102.479 19.6522C102.479 22.6767 100.127 22.6767 99.7909 22.6767H93.7418V16.9637V13.155V7.7781H97.5505C97.8865 7.7781 98.1106 7.89012 98.4466 8.00214C98.6707 8.11416 99.0067 8.3382 99.1187 8.56224C99.2308 8.78628 99.4548 9.12233 99.5668 9.34637C99.6788 9.68243 99.7909 10.0185 99.7909 10.3545C99.7909 10.6906 99.6788 11.0267 99.5668 11.3627C99.5668 11.3627 99.5668 11.4747 99.4548 11.4747C102.031 11.5868 103.151 12.0348 103.936 12.3709C104.048 11.9228 104.16 11.2507 104.16 10.1305C104.16 8.89829 103.824 3.85742 97.4384 3.85742H89.373V26.4853H99.7909C100.799 26.4853 101.695 26.3733 102.479 26.1493C103.375 25.9252 104.048 25.5892 104.72 25.0291C105.392 24.469 105.84 23.7969 106.288 23.0127C106.624 22.1166 106.848 21.1084 106.848 19.8762C106.848 18.3079 106.288 16.1796 104.72 14.7233Z" fill="#1A1A1A"/>
<path fillRule="evenodd" clipRule="evenodd" d="M4.71289 6.6655C9.05221 2.87628 15.6386 2.95372 19.8992 7.00998C24.4054 11.2999 24.5803 18.4524 20.281 22.9693C16.134 27.326 9.31658 27.6398 4.77965 23.7664L8.03481 20.3471C10.6771 22.4353 14.5091 22.2056 16.8723 19.7235C19.3771 17.0919 19.285 12.9235 16.6534 10.4187C14.2781 8.1569 10.6758 8.0167 8.14296 9.93134L4.71289 6.6655Z" fill="#1A1A1A"/>
<path d="M7.24494 11.7607L3.58257 8.1001L0.013758 11.6388L3.67613 15.3008L0 18.9477L3.55506 22.5001L7.23118 18.8532L10.8 15.3145L7.24494 11.7607Z" fill="#01DB83"/>
</svg>

<svg width="169" height="36" fill="none" xmlns="http://www.w3.org/2000/svg">
  <path
    d="M129.103 4.8c0-.654.218-1.309.763-1.854.437-.546 1.091-.764 1.855-.764.763 0 1.418.218 1.854.764.546.545.764 1.09.764 1.854s-.218 1.418-.764 1.855c-.545.545-1.091.763-1.854.763-.764 0-1.309-.218-1.855-.763a2.556 2.556 0 01-.763-1.855zm.545 6.218l4.036-.763V26.4h-4.036V11.018zM125.502 9.82h-4.036v9.163c0 1.854-1.527 3.49-3.491 3.49-1.854 0-3.491-1.527-3.491-3.49V9.819h-4.036v9.164c0 4.145 3.382 7.527 7.527 7.527 4.146 0 7.527-3.382 7.527-7.527V9.819zM70.828 17.237v9.164h4.036v-9.164a3.399 3.399 0 013.382-3.381c1.855 0 3.49 1.527 3.49 3.49v9.164h4.037v-9.164c0-4.145-3.382-7.527-7.527-7.527s-7.418 3.273-7.418 7.418zM144.702 22.69h-.655c-.872 0-1.527-.218-1.745-.654-.218-.437-.436-1.091-.436-1.746V0l-3.928.764V20.29c0 .764.11 1.528.219 2.182.109.655.436 1.31.763 1.855.437.545.873.981 1.637 1.2.654.327 1.527.436 2.618.436.436 0 .872 0 1.418-.11V22.69h.109zM168.156 22.69c-.873 0-1.527-.218-1.746-.654-.218-.437-.436-1.091-.436-1.746V0l-3.927.764v9.49c-.437-.218-.873-.436-1.418-.654-1.091-.437-2.182-.655-3.491-.655a9.45 9.45 0 00-6.327 2.4c-.764.764-1.418 1.636-1.855 2.727-.436 1.091-.654 2.182-.654 3.491 0 1.31.218 2.4.654 3.49.437 1.092 1.091 1.964 1.855 2.728.763.764 1.745 1.31 2.836 1.745 1.091.437 2.182.655 3.491.655 1.2 0 2.4-.218 3.491-.655.327-.108.654-.327.981-.436l-.109-.109c-.436-.545-.654-1.09-.763-1.854-.109-.546-.218-1.091-.218-1.746a4.864 4.864 0 01-1.2.873c-.546.327-1.309.436-2.073.436s-1.527-.109-2.073-.436c-.545-.327-1.091-.764-1.418-1.2-.436-.545-.654-1.09-.873-1.636-.218-.655-.327-1.31-.327-1.855 0-.654.109-1.2.327-1.854.219-.655.437-1.2.873-1.637.436-.545.873-.872 1.418-1.2.546-.327 1.309-.436 2.073-.436s1.527.11 2.073.436c.545.328 1.09.655 1.418 1.2.327.546.654 1.091.872 1.637.11.218.11.654.11.981v3.6c0 .764.109 1.528.218 2.182.109.655.436 1.31.763 1.855.437.545.873.981 1.637 1.2.654.327 1.527.436 2.618.436.327 0 .872 0 1.309-.11V22.69h-.109zM27.274 13.31c.873 0 1.528.218 1.746.654.218.436.436 1.091.436 1.746V36l3.927-.764v-9.49c.437.218.873.436 1.418.654 1.091.437 2.182.655 3.491.655 1.2 0 2.4-.218 3.491-.655a9.481 9.481 0 002.836-1.745c.764-.764 1.419-1.637 1.855-2.727.436-1.091.654-2.182.654-3.491 0-1.31-.218-2.4-.654-3.491-.436-1.09-1.091-1.964-1.855-2.727-.763-.764-1.745-1.31-2.836-1.746-1.09-.436-2.182-.654-3.49-.654-1.2 0-2.4.218-3.492.654-.327.11-.654.328-.981.437l.109.109c.436.545.654 1.09.763 1.854.11.546.218 1.091.218 1.746a4.845 4.845 0 011.2-.873c.546-.327 1.31-.436 2.073-.436.764 0 1.527.109 2.073.436.545.327 1.09.764 1.418 1.2.436.545.654 1.09.873 1.636.218.655.327 1.31.327 1.855 0 .654-.11 1.2-.327 1.854-.218.655-.437 1.2-.873 1.637-.436.545-.873.872-1.418 1.2-.546.327-1.31.436-2.073.436-.763 0-1.527-.11-2.072-.436-.546-.328-1.091-.655-1.419-1.2-.327-.546-.654-1.091-.872-1.637-.11-.218-.11-.654-.11-.982v-3.6c0-.763-.108-1.527-.218-2.181-.109-.655-.436-1.31-.763-1.855-.437-.545-.873-.981-1.636-1.2-.655-.327-1.528-.436-2.619-.436-.327 0-.872 0-1.309.11v3.163h.11zM66.655 14.728a9.536 9.536 0 00-1.636-2.727c-.654-.763-1.527-1.309-2.509-1.636-.982-.328-1.964-.546-3.164-.546-1.2 0-2.29.218-3.381.655-1.091.436-1.964.982-2.728 1.745-.763.764-1.418 1.637-1.854 2.728-.436 1.09-.655 2.29-.655 3.6 0 1.308.219 2.508.655 3.6a6.697 6.697 0 001.854 2.617 6.316 6.316 0 002.728 1.637c1.09.327 2.181.545 3.49.545 2.073 0 4.255-.545 6.219-2.29l-2.182-2.619c-.328.327-1.31.982-1.527 1.091-.655.327-1.528.546-2.51.546-.545 0-1.2-.11-1.636-.328-.545-.218-.982-.436-1.418-.872a3.41 3.41 0 01-.982-1.2c-.218-.437-.436-.982-.436-1.637-.11-1.527 0-2.945 0-2.945.109-1.2.545-2.073 1.418-2.836.873-.764 1.855-1.091 3.054-1.091.655 0 1.2.109 1.746.327a4.84 4.84 0 011.2.873 2.6 2.6 0 01.654 1.2c.11.436.219.981.219 1.527h-6.982v2.945h10.909v-.545-.546c.109-1.418-.11-2.727-.546-3.818zM104.72 14.723c-1.457-1.68-6.05-1.568-6.05-1.568h-3.248v3.809h3.92c1.009 0 3.137 0 3.137 2.688 0 3.025-2.352 3.025-2.688 3.025h-6.05V7.778h3.81c.335 0 .56.112.896.224.224.112.56.336.672.56.112.224.336.56.448.784.112.336.224.672.224 1.008 0 .337-.112.673-.224 1.009 0 0 0 .112-.112.112 2.576.112 3.696.56 4.481.896.112-.448.224-1.12.224-2.24 0-1.233-.336-6.274-6.722-6.274h-8.065v22.628h10.418c1.008 0 1.904-.112 2.688-.336.896-.224 1.569-.56 2.241-1.12.672-.56 1.12-1.232 1.568-2.016.336-.896.56-1.905.56-3.137 0-1.568-.56-3.696-2.128-5.153zM4.713 6.665c4.34-3.789 10.926-3.711 15.186.345 4.506 4.29 4.681 11.442.382 15.96-4.147 4.356-10.964 4.67-15.501.796l3.255-3.419a6.573 6.573 0 008.837-.623c2.505-2.632 2.413-6.8-.219-9.305a6.58 6.58 0 00-8.51-.488l-3.43-3.265z"
    fill="CurrentColor" />
  <path d="M7.245 11.76L3.583 8.1.013 11.64 3.677 15.3 0 18.948 3.555 22.5l3.676-3.647 3.569-3.539-3.555-3.553z"
    fill="#01DB83" />
</svg>
